X:1
T:Mazurka
T:Mazurka
T:A. GRECSANYINOV (1864,    ) 
C:A. GRECSANYINOV(1844,    )
%%score { ( 1 2 ) | ( 3 4 ) }
L:1/8
Q:1/4=84
M:3/4
K:D
V:1 treble nm="Zongora" snm="Zon."
V:2 treble 
V:3 bass 
V:4 bass 
V:1
"^(Tempo di Mazurka)"!mf! (F2 d4) | (^E2 c4) | (F>^A c3 d | c2 B2 f2) | (F2 d4) | (^E2 c4) | %6
 (F>^A c3 d | B6) |:!f! (B2 A3 G | F3 G A2) | (B2 A3 G |!>(! F4 .d2)!>)! |!p! (B2 A3 G | F3 G A2) | %14
 (B2 A3 G | F6) |!p! (F2 d4) | (^E2 c4) | (F>^A c3 d | c2 B2 f2) | (F2 d4) | (^E2 c4) | %22
 (F>^A c3 d | B6) :| %24
V:2
 F6 | ^E6 | x6 | x6 | F6 | ^E6 | z6 | x6 |: x6 | x6 | x6 | x6 | x6 | x6 | x6 | x6 | F6 | ^E6 | x6 | %19
 x6 | F6 | ^E6 | x6 | x6 :| %24
V:3
 (D4!ped! F,2)!ped-up! | (C4!ped! F,2)!ped-up! | ([^A,=E]4!ped! F,2)!ped-up! | %3
 ([B,D]4!ped! F,2)!ped-up! | (D4!ped! F,2)!ped-up! | (C4!ped! F,2)!ped-up! | %6
 ([^A,=E]4!ped! F,2)!ped-up! | [B,D]4!ped! B,,2!ped-up! |:!ped! .C,2 .A,2!ped-up! .E2 | %9
!ped! .D,2 .A,2!ped-up! z2 |!ped! .C,2 .A,2!ped-up! .E2 |!ped! .D,2 .A,2!ped-up! z2 | %12
!ped! .C,2 .A,2!ped-up! .E2 |!ped! .D,2 .A,2!ped-up! z2 | z2!ped! (E,2 B,2!ped-up! | %15
!ped! ^A,6)!ped-up! | (D4!ped! F,2)!ped-up! | (C4!ped! F,2)!ped-up! | ([^A,=E]4!ped! F,2)!ped-up! | %19
 ([B,D]4!ped! F,2)!ped-up! | (D4!ped! F,2)!ped-up! | (C4!ped! F,2)!ped-up! | %22
 ([^A,=E]4!ped! F,2)!ped-up! |!ped! [B,D]6!ped-up! :| %24
V:4
 x6 | x6 | x6 | x6 | x6 | x6 | x6 | x6 |: x6 | x6 | x6 | x6 | x6 | x6 | z2 (E,4 | F,6) | x6 | x6 | %18
 x6 | x6 | x6 | x6 | x6 | x6 :| %24

